X:1
T:I’ll Count My Blessings
T:George Blackburn Holsinger
T:I’ll Count My Blessings
T:George Blackburn Holsinger
T:Carrie Elizabeth Ellis Breck, 1901
T:Public Domain
T:Public Domain
C:George Blackburn Holsinger
Z:Carrie Elizabeth Ellis Breck, 1901
Z:Public Domain
%%score ( 1 2 ) ( 3 4 )
L:1/8
Q:1/4=95
M:2/4
K:D
V:1 treble 
V:2 treble 
V:3 bass 
V:4 bass 
V:1
 [FA] | [Fd] [Fd] [Ac] [GB] | [GB] [FA] [FA] [DF] | [FA] [EG] [EG] [CA] | [DF]3 [FA] | %5
w: 1.~I|lift my heart to-|day in praise To|Him Who loves me|so, Whose|
w: 2.~I|thank Him for un-|cloud- ed skies— For|love be- yond my|ken— That|
w: 3.~I|go to meet a-|no- ther year, With|faith no doubt can|dim, God|
 [Fd] [Fd] [Gc] [Ad] | [Ac] [GB] [DA] [EG] | [DF] [FA] [EG] [CE] | D3 [A,D] | %9
w: mer- cy crown- eth|all my days, And|makes my cup o’er-|flow. O|
w: when my path in|sha- dow lies, The|sun- shine comes a-|gain. I|
w: reign- eth, and I|will not fear, But|trust my way with|Him. Then|
 [B,D] [DB] [GB] [Gd] | [Gc] [GB] [GB] [GB] | [^GB] [GB] [Gc] [Gd] | [Ac]3 A | %13
w: have I loved Him|as I should For|all His bless- ings|free? Praise|
w: thank Him for the|hopes ful- filled— For|ev- ery an- swered|plea, That|
w: if that way be|bright or dark, Let|peace un- shak- en|be! And|
 [Fd] [Fd] [Gc] [Ad] | [Ac] [GB] [DA] [EG] | [DF] [FA] [EG] [CE] | D3 ||"^Refrain" [FA] | %18
w: God Who giv- eth|naught but good, For|He is good to|me!|I’ll|
w: though life was not|all I willed, My|God is good to|me!||
w: let me, like the|soar- ing lark, Sing|“God is good to|me!”||
 [Fd]3 [Fd] | [Ac]2 [GB]2 | [Ec] [Ec] [EG] [GB] | [FA]3 [DF] | [CG] [CG] [DA] [FA] | %23
w: count my|bless- ings—|Count them o’er and|o’er— I’ll|tell my Fa- ther’s|
w: |||||
w: |||||
 [GB] [GB] [Ec] [Fc] | [Fd]2 [^Gd]2 | [Ac]3 A | [Fd]3 [Fd] | [Ac]2 [GB]2 | [Ec] [Ec] [EG] [GB] | %29
w: good- ness— I will|love Him|more, I’ll|count my|bless- ings,|boun- ti- ful and|
w: ||||||
w: ||||||
 [FA]3 [FA] | [Fd] [Fd] [Gc] [Ad] | [Ac] [GB] [DA] [EG] | [DF] [FA] [EG] [CE] | D3 |] %34
w: free— Yet|I can nev- er|count them all— So|good is God to|me!|
w: |||||
w: |||||
V:2
 x | x4 | x4 | x4 | x4 | x4 | x4 | x4 | D3 x | x4 | x4 | x4 | x3 G | x4 | x4 | x4 | D3 || x | x4 | %19
 x4 | x4 | x4 | x4 | x4 | x4 | x3 G | x4 | x4 | x4 | x4 | x4 | x4 | x4 | D3 |] %34
V:3
 [D,A,] | [D,A,] [D,A,] [D,D] [D,D] | [D,D] [D,D] [D,D] [D,A,] | [A,,A,] [A,,A,] [A,,A,] [A,,A,] | %4
w: ~|~ ~ ~ ~|~ ~ ~ ~|~ ~ ~ ~|
 [D,A,]3 [D,D] | [D,A,] [D,A,] [E,A,] [F,D] | [G,D] [G,D] [F,D] [G,B,] | A, A, [A,,A,] [A,,G,] | %8
w: ~ ~|~ ~ ~ ~|~ ~ ~ ~|~ ~ ~ ~|
 [D,F,]3 [D,F,] | G, G, G, [G,B,] | [G,D] [G,D] [G,D] [G,D] | [E,D] [E,D] [E,C] [E,B,] | %12
w: ~ ~|~ ~ ~ ~|~ ~ ~ ~|~ ~ ~ ~|
 A,3 [A,C] | [D,D] [D,A,] [E,A,] [F,D] | [G,D] [E,D] [F,D] [G,B,] | A, A, [A,,A,] [A,,G,] | %16
w: ~ ~|~ ~ ~ ~|~ ~ ~ *||
 [D,F,]3 || [D,A,] | [D,A,] [D,A,] [D,A,] [D,D] | [G,D] [G,D] [G,D] [G,D] | A,2 [A,,C]2 | %21
w: |I'll|count my ma- ny|bless- ings; I will|count them|
 [D,D] [D,D] [D,D] [D,A,] | [E,A,] [E,A,] [F,A,] [D,D] | [G,D] [G,D] A, [F,^A,] | %24
w: o'er and o'er *|||
 B, B, [E,B,] [E,E] | [A,E]3 [A,C] | [D,D] [D,A,] [D,A,] [D,D] | [G,D] [G,D] [G,D] [G,D] | %28
w: love Him more and|more, I'll|count my ma- ny|bless- ings, O how|
 A,2 [A,,C]2 | [D,D] [D,D] [D,D] [D,D] | [D,D] [D,A,] [E,A,] [F,D] | [G,D] [G,D] [G,D] [G,B,] | %32
w: boun- ti-|ful and free- *|||
 A, A, [A,,A,] [A,,G,] | [D,F,]3 |] %34
w: ||
V:4
 x | x4 | x4 | x4 | x4 | x4 | x4 | A, A, x2 | x4 | G, G, G, x | x4 | x4 | A,3 x | x4 | x4 | %15
w: |||||||~ ~||~ ~ ~|||~|||
 A, A, x2 | x3 || x | x4 | x4 | A,2 x2 | x4 | x4 | x2 ^A, x | B, B, x2 | x4 | x4 | x4 | A,2 x2 | %29
w: |||||~|||||||||
 x4 | x4 | x4 | A, A, x2 | x3 |] %34
w: |||||

